X: 68
T:Battering Ram
R:Jig
M:6/8
L:1/8
Q:3/8=120
K:G
B|dBG BAG|dBG G2B|dBG AGE|GED D2B|
ded BAG|ded BAG|AGA BAB|GED D2:|
d|deg aga|bge edB|deg aga|bge ega|
b2g age|ged ege|dBG ABA|GED D2:|
d|B2G A2G|B2D D2B|BAG AGE|GED D2d|
B2G A2G|B2G BdB|AGA BAB|GED D2:|
